img/info.svg

<?xml version="1.0" encoding="UTF-8" standalone="no"?>
<svg width="14px" height="14px" viewBox="0 0 14 14" version="1.1" xmlns="http://www.w3.org/2000/svg" xmlns:xlink="http://www.w3.org/1999/xlink" xmlns:sketch="http://www.bohemiancoding.com/sketch/ns">
    <!-- Generator: Sketch 3.0.4 (8053) - http://www.bohemiancoding.com/sketch -->
    <title>info</title>
    <desc>Created with Sketch.</desc>
    <defs></defs>
    <g id="Page-1" stroke="none" stroke-width="1" fill="none" fill-rule="evenodd" sketch:type="MSPage">
        <g id="info" sketch:type="MSArtboardGroup" fill="#808285">
            <path d="M7,0 C3.134,0 0,3.134 0,7 C0,10.866 3.134,14 7,14 C10.866,14 14,10.866 14,7 C14,3.134 10.866,0 7,0 L7,0 Z M7.6295,11.373 C7.196,11.791 6.7325,12 6.2395,12 C5.9605,12 5.7105,11.913 5.4885,11.743 C5.267,11.5705 5.1565,11.3075 5.1565,10.955 C5.1565,10.831 5.186,10.634 5.246,10.366 C5.2815,10.212 5.333,10.008 5.4025,9.754 L6.3425,6.322 C6.352,6.2815 6.361,6.2425 6.368,6.2025 C6.376,6.1625 6.3795,6.1255 6.3795,6.091 C6.3795,5.886 6.315,5.7595 6.186,5.71 C6.0565,5.6605 5.821,5.6285 5.478,5.6135 L5.478,5.21 C5.7645,5.1905 6.1805,5.149 6.726,5.087 C7.272,5.025 7.6585,4.9715 7.8855,4.927 L8.538,4.8 L7.3515,9.1495 C7.252,9.5225 7.185,9.781 7.1495,9.925 C7.0605,10.293 7.0155,10.5325 7.0155,10.6425 C7.0155,10.751 7.04,10.823 7.09,10.8545 C7.14,10.8875 7.1945,10.9025 7.2545,10.9025 C7.409,10.9025 7.6015,10.7715 7.8305,10.507 C8.0595,10.244 8.2625,9.9675 8.4365,9.6785 L8.7725,9.8955 C8.2735,10.627 7.8925,11.119 7.6295,11.373 L7.6295,11.373 Z M8.6075,3.818 C8.4005,4.027 8.1495,4.132 7.855,4.132 C7.561,4.132 7.309,4.027 7.0995,3.818 C6.89,3.6085 6.786,3.3565 6.786,3.062 C6.786,2.7675 6.89,2.517 7.0995,2.31 C7.309,2.1035 7.561,2 7.855,2 C8.1495,2 8.4005,2.1035 8.6075,2.31 C8.8135,2.517 8.917,2.7675 8.917,3.062 C8.917,3.3565 8.8135,3.6085 8.6075,3.818 L8.6075,3.818 Z" id="Imported-Layers" sketch:type="MSShapeGroup"></path>
        </g>
    </g>
</svg>

<svg viewBox="0 0 14 14" xmlns="http://www.w3.org/2000/svg"><g fill="none" fill-rule="evenodd"><path d="m7 0c-3.866 0-7 3.134-7 7 0 3.866 3.134 7 7 7 3.866 0 7-3.134 7-7 0-3.866-3.134-7-7-7m.63 11.373c-.434.418-.897.627-1.39.627-.279 0-.529-.087-.751-.257-.221-.173-.332-.436-.332-.788 0-.124.029-.321.09-.589.035-.154.087-.358.156-.612l.94-3.432c.01-.04.018-.08.026-.12.008-.04.011-.077.011-.111 0-.205-.064-.332-.194-.381-.13-.05-.365-.082-.708-.096v-.404c.287-.019.703-.061 1.248-.123.546-.062.933-.115 1.16-.16l.652-.127-1.187 4.35c-.099.373-.167.632-.202.776-.089.368-.134.607-.134.717 0 .108.024.181.074.212.05.033.104.048.165.048.154 0 .347-.131.576-.396.229-.263.432-.54.606-.829l.336.217c-.499.732-.88 1.223-1.143 1.477m.978-7.555c-.207.209-.458.314-.752.314-.294 0-.546-.105-.756-.314-.21-.21-.314-.462-.314-.756 0-.294.104-.545.314-.752.21-.207.462-.31.756-.31.294 0 .545.103.752.31.206.207.309.458.309.752 0 .295-.104.547-.309.756" fill="#808285"/></g></svg>
